X: 0
T: A Meteor Bright Its Wondrous Light
Z: Edwin Lemare
Z: Sequenced 2003 by Douglas D. Anderson
Z: Public Domain
L: 1/4
M: 6/8
Q: 1/4=162
V: P1 name="Staff"
%%MIDI program 1 19
K: G
[V: P1]  B/ | (B/c/) d/ e d/ | B A/ G G/ | A A/ (A/B/) c/ | (B3/ B) B/ | (B/c/) d/ e d/ | B A/ G G/ | (A/B/) c/ B A/ | (G3/ G) A/ | (A/B/) c/ B G/ | d A/ B G/ | (e/d/) B/ (A/G/) E/ | (A3/ A) D/ | (B/c/) d/ e d/ | B A/ G G/ | (A/B/) c/ B A/ | (G3/ G)|]
w: A me-_ teor bright its won- drous light O'er Beth- l'em's ci-_ ty shed,_ To lead_ the way where Je- sus lay, Up- on_ His lone- ly bed._ No no-_ bles wait, no pomp or state Sur- rounds_ the Babe_ di- vine,_ But o'er_ His head bright cir- cles spread, In gold-_ en glo- ries shine._

